src/assets/ArrowDecoRight.svg

<svg width="94" height="171" viewBox="0 0 94 171" fill="none" xmlns="http://www.w3.org/2000/svg">
<path d="M68.4843 154.664C67.6666 154.918 67.3457 155.131 67.0628 155.095C44.2362 151.595 25.5697 141.083 12.1809 122.016C8.78289 117.168 6.74169 111.589 5.89405 105.649C4.06063 92.8351 10.4243 80.896 22.0725 75.3062C28.1073 72.4134 34.3275 70.5993 41.1562 71.7786C42.7684 74.4889 44.1826 77.257 45.9637 79.7816C48.769 83.7526 52.5553 86.3885 57.5151 86.9923C61.2469 87.4459 64.1837 86.3008 65.1458 83.9236C66.3573 80.931 65.206 78.2068 63.0145 76.4454C59.9612 73.9756 56.5086 71.9262 53.0374 70.0592C50.7904 68.8455 48.2018 68.2499 45.8115 67.3981C42.8929 55.4367 51.5644 46.2261 66.3297 45.6811C67.3958 47.0872 68.4493 48.6618 69.6897 50.0664C74.1517 55.1199 79.6351 58.1685 86.5369 57.7898C89.1273 57.6498 91.7587 56.8981 92.8913 54.0545C93.7627 51.8544 92.5904 49.0221 89.8347 46.9087C85.4532 43.5602 80.3094 42.0521 74.968 41.1148C73.1093 40.7917 71.2316 40.593 69.4397 40.3475C64.231 22.0577 74.8644 3.25994 93.1654 3.91388C92.4917 2.6969 92.2313 1.52054 91.5122 1.10367C90.7187 0.647341 89.4741 0.655797 88.5157 0.850254C79.4298 2.73051 71.9368 6.93242 67.9344 15.7811C64.9573 22.3783 63.8975 29.3563 64.335 36.5722C64.3937 37.5979 64.4325 38.6318 64.4571 39.6598C64.4604 39.8101 64.3275 39.9696 64.1189 40.4283C63.2172 40.7045 62.0941 41.0947 60.9459 41.367C46.7235 44.7455 41.1999 51.2198 40.0795 66.2477C38.6673 66.3598 37.1912 66.4864 35.7028 66.5831C26.9486 67.1377 19.1588 70.1315 12.4782 75.8318C1.48105 85.2023 -2.23709 99.4983 2.57356 113.6C5.19357 121.275 9.36098 128.001 14.93 133.849C28.444 148.012 44.6992 156.853 64.3651 158.93C65.4023 159.042 66.4336 159.167 67.459 159.307C67.5975 159.332 67.7211 159.491 68.3848 160.001C65.3365 162.183 61.9897 163.181 58.7405 164.361C55.5513 165.516 52.3089 166.542 48.8232 167.713C50.181 170.201 51.9708 170.669 53.9178 170.525C56.1572 170.354 58.5079 170.312 60.564 169.551C66.0889 167.52 71.5969 165.391 76.8768 162.82C81.0808 160.782 81.3157 157.968 77.9416 155.256C70.7761 149.526 63.5688 143.836 56.3439 138.189C55.21 137.3 53.866 136.696 52.2203 135.726C51.2149 138.681 52.7087 139.935 54.024 141.181C58.7049 145.573 63.4035 149.923 68.4843 154.664ZM88.5792 52.2988C81.3274 54.1857 75.2022 51.5634 72.4151 45.4736C78.2856 46.6489 83.8173 47.5665 88.5792 52.2988ZM61.1922 81.6479C54.7372 82.7183 50.3355 79.833 48.4442 73.4811C53.5244 75.062 58.1084 76.7411 61.1922 81.6479Z" fill="white"/>
</svg>

<svg width="94" height="171"><path d="M68.484 154.664c-.817.254-1.138.467-1.421.431-22.827-3.5-41.493-14.012-54.882-33.079-3.398-4.848-5.44-10.427-6.287-16.367-1.833-12.814 4.53-24.753 16.178-30.343 6.035-2.893 12.256-4.707 19.084-3.527 1.612 2.71 3.027 5.478 4.808 8.003 2.805 3.97 6.591 6.606 11.551 7.21 3.732.454 6.669-.691 7.63-3.068 1.212-2.993.061-5.717-2.13-7.479-3.054-2.47-6.506-4.519-9.978-6.386-2.247-1.213-4.835-1.81-7.225-2.66-2.92-11.962 5.752-21.173 20.518-21.718 1.066 1.406 2.12 2.98 3.36 4.385 4.462 5.054 9.945 8.102 16.847 7.724 2.59-.14 5.222-.892 6.354-3.736.872-2.2-.3-5.032-3.056-7.145-4.382-3.349-9.526-4.857-14.867-5.794-1.859-.323-3.736-.522-5.528-.768C64.23 22.057 74.864 3.26 93.165 3.914c-.673-1.217-.934-2.393-1.653-2.81C90.72.647 89.474.656 88.516.85c-9.086 1.88-16.58 6.082-20.582 14.931-2.977 6.597-4.036 13.575-3.599 20.791.059 1.026.098 2.06.122 3.088.003.15-.13.31-.338.768-.902.277-2.025.667-3.173.939C46.724 44.746 41.2 51.22 40.08 66.247c-1.413.113-2.889.24-4.377.336-8.754.555-16.544 3.549-23.225 9.249C1.481 85.202-2.237 99.498 2.574 113.6c2.62 7.675 6.787 14.401 12.356 20.249 13.514 14.163 29.77 23.004 49.435 25.081 1.037.112 2.069.237 3.094.377.138.025.262.184.926.694-3.049 2.182-6.395 3.18-9.645 4.36-3.189 1.155-6.431 2.181-9.917 3.352 1.358 2.488 3.148 2.956 5.095 2.812 2.24-.171 4.59-.213 6.646-.974 5.525-2.031 11.033-4.16 16.313-6.731 4.204-2.038 4.439-4.852 1.065-7.564a2477.52 2477.52 0 0 0-21.598-17.067c-1.134-.889-2.478-1.493-4.124-2.463-1.005 2.955.489 4.209 1.804 5.455 4.68 4.392 9.38 8.742 14.46 13.483ZM88.58 52.299c-7.252 1.887-13.377-.736-16.164-6.825 5.87 1.175 11.402 2.093 16.164 6.825ZM61.192 81.648c-6.455 1.07-10.856-1.815-12.748-8.167 5.08 1.581 9.664 3.26 12.748 8.167Z"/></svg>
